source/img/moderna.svg

<svg width="74" height="17" viewBox="0 0 74 17" fill="none" xmlns="http://www.w3.org/2000/svg">
<path fill-rule="evenodd" clip-rule="evenodd" d="M68.2019 15.8329H67.1465C66.9012 15.8329 66.7734 16.0144 66.7734 16.3589C66.7734 16.6849 66.9012 16.8665 67.1465 16.8665H71.2035C71.4623 16.8665 71.5917 16.6849 71.5917 16.3589C71.5917 16.0144 71.4623 15.8329 71.2035 15.8329H68.2019Z" fill="#28ABE1"/>
<path fill-rule="evenodd" clip-rule="evenodd" d="M62.0141 15.8329H60.9603C60.72 15.8329 60.5771 16.0144 60.5771 16.3589C60.5771 16.6849 60.72 16.8665 60.9603 16.8665H65.0139C65.2677 16.8665 65.3954 16.6849 65.3954 16.3589C65.3954 16.0144 65.2677 15.8329 65.0139 15.8329H62.0141Z" fill="#3DB3E3"/>
<path fill-rule="evenodd" clip-rule="evenodd" d="M56.1556 15.8329H55.1001C54.843 15.8329 54.7271 16.0144 54.7271 16.3589C54.7271 16.6849 54.843 16.8665 55.1001 16.8665H59.1571C59.4159 16.8665 59.5453 16.6849 59.5453 16.3589C59.5453 16.0144 59.4159 15.8329 59.1571 15.8329H56.1556Z" fill="#4AB8E6"/>
<path fill-rule="evenodd" clip-rule="evenodd" d="M49.9677 15.8329H48.919C48.6602 15.8329 48.5308 16.0144 48.5308 16.3589C48.5308 16.6849 48.6602 16.8665 48.919 16.8665H52.9625C53.2213 16.8665 53.349 16.6849 53.349 16.3589C53.349 16.0144 53.2213 15.8329 52.9625 15.8329H49.9677Z" fill="#57BDE8"/>
<path fill-rule="evenodd" clip-rule="evenodd" d="M43.7728 15.8329H42.7225C42.4653 15.8329 42.3359 16.0144 42.3359 16.3589C42.3359 16.6849 42.4653 16.8665 42.7225 16.8665H46.7677C47.0248 16.8665 47.1542 16.6849 47.1542 16.3589C47.1542 16.0144 47.0248 15.8329 46.7677 15.8329H43.7728Z" fill="#63C2EB"/>
<path fill-rule="evenodd" clip-rule="evenodd" d="M37.9208 15.8329H36.8721C36.6133 15.8329 36.4839 16.0144 36.4839 16.3589C36.4839 16.6849 36.6133 16.8665 36.8721 16.8665H40.9156C41.1744 16.8665 41.3022 16.6849 41.3022 16.3589C41.3022 16.0144 41.1744 15.8329 40.9156 15.8329H37.9208Z" fill="#70C7EB"/>
<path fill-rule="evenodd" clip-rule="evenodd" d="M31.7265 15.8329H30.6761C30.419 15.8329 30.2896 16.0144 30.2896 16.3589C30.2896 16.6849 30.419 16.8665 30.6761 16.8665H34.7213C34.9918 16.8665 35.1078 16.6849 35.1078 16.3589C35.1078 16.0144 34.9918 15.8329 34.7213 15.8329H31.7265Z" fill="#7DCCEE"/>
<path fill-rule="evenodd" clip-rule="evenodd" d="M25.5302 15.8329H24.4815C24.2227 15.8329 24.0933 16.0144 24.0933 16.3589C24.0933 16.6849 24.2227 16.8665 24.4815 16.8665H28.5384C28.7838 16.8665 28.9132 16.6849 28.9132 16.3589C28.9132 16.0144 28.7838 15.8329 28.5384 15.8329H25.5302Z" fill="#8AD1F0"/>
<path fill-rule="evenodd" clip-rule="evenodd" d="M19.6813 15.8329H18.6275C18.3704 15.8329 18.2427 16.0144 18.2427 16.3589C18.2427 16.6849 18.3704 16.8665 18.6275 16.8665H22.6744C22.9315 16.8665 23.0609 16.6849 23.0609 16.3589C23.0609 16.0144 22.9315 15.8329 22.6744 15.8329H19.6813Z" fill="#97D7F0"/>
<path fill-rule="evenodd" clip-rule="evenodd" d="M13.4749 15.8329H12.4329C12.1758 15.8329 12.0464 16.0144 12.0464 16.3589C12.0464 16.6849 12.1758 16.8665 12.4329 16.8665H16.4798C16.7369 16.8665 16.8663 16.6849 16.8663 16.3589C16.8663 16.0144 16.7369 15.8329 16.4798 15.8329H13.4749Z" fill="#A3DCF3"/>
<path fill-rule="evenodd" clip-rule="evenodd" d="M7.28728 15.8329H6.23691C5.97978 15.8329 5.85205 16.0144 5.85205 16.3589C5.85205 16.6849 5.97978 16.8665 6.23691 16.8665H10.2855C10.5426 16.8665 10.6703 16.6849 10.6703 16.3589C10.6703 16.0144 10.5426 15.8329 10.2855 15.8329H7.28728Z" fill="#B0E1F5"/>
<path fill-rule="evenodd" clip-rule="evenodd" d="M1.4285 15.8329H0.374765C0.117636 15.8329 0 16.0144 0 16.3589C0 16.6849 0.117632 16.8665 0.374765 16.8665H4.4334C4.69053 16.8665 4.81994 16.6849 4.81994 16.3589C4.81994 16.0144 4.69053 15.8329 4.4334 15.8329H1.4285Z" fill="#BDE6F5"/>
<path fill-rule="evenodd" clip-rule="evenodd" d="M0 3.32252H1.10247V4.83673C1.4806 4.27205 1.8705 3.87208 2.27216 3.61495C2.82339 3.27547 3.40824 3.099 4.01662 3.099C4.42836 3.099 4.81994 3.17974 5.19807 3.34437C5.56444 3.51075 5.87535 3.7309 6.10391 4.01492C6.33415 4.28549 6.54087 4.68212 6.71229 5.18966C7.07866 4.50902 7.53914 3.98971 8.07693 3.6267C8.62816 3.27547 9.21301 3.099 9.84492 3.099C10.4415 3.099 10.9575 3.24858 11.4045 3.55444C11.8515 3.86031 12.1843 4.28549 12.4145 4.83673C12.633 5.37788 12.7355 6.1997 12.7355 7.28032V12.0465H11.623V7.28032C11.623 6.35096 11.5541 5.70561 11.428 5.35268C11.2902 4.99975 11.0717 4.72078 10.7508 4.50903C10.4415 4.29391 10.0617 4.19138 9.62644 4.19138C9.09873 4.19138 8.6164 4.35441 8.16936 4.67372C7.73241 4.98631 7.4131 5.42158 7.20639 5.95097C7.00976 6.49212 6.90724 7.38283 6.90724 8.63151V12.0465H5.80644V7.58618C5.80644 6.52741 5.74932 5.81316 5.62327 5.43503C5.48546 5.06026 5.26698 4.75439 4.94599 4.53087C4.62499 4.30735 4.24517 4.19138 3.8099 4.19138C3.30404 4.19138 2.83516 4.34096 2.38644 4.66028C1.95116 4.96614 1.63017 5.38797 1.41169 5.91568C1.20498 6.44507 1.10247 7.25511 1.10247 8.34749V12.0465H0V3.32252Z" fill="#E11735"/>
<path fill-rule="evenodd" clip-rule="evenodd" d="M19.2817 4.21661C18.3574 4.21661 17.5726 4.56112 16.9138 5.26193C16.2567 5.95434 15.9206 6.79799 15.9206 7.79627C15.9206 8.42817 16.0718 9.02309 16.371 9.58273C16.6718 10.1323 17.0751 10.5592 17.5961 10.8549C18.1036 11.1524 18.6582 11.307 19.2817 11.307C19.8817 11.307 20.4481 11.1524 20.9556 10.8549C21.4732 10.5592 21.8783 10.1323 22.1791 9.58273C22.4799 9.02309 22.6312 8.42817 22.6312 7.79627C22.6312 6.79799 22.295 5.95434 21.6379 5.26193C20.9791 4.56112 20.1943 4.21661 19.2817 4.21661ZM19.2817 3.099C20.5976 3.099 21.6934 3.59814 22.5623 4.57457C23.3589 5.47705 23.7504 6.53582 23.7504 7.77441C23.7504 9.00125 23.332 10.0802 22.49 10.9978C21.6581 11.9272 20.5859 12.391 19.2817 12.391C17.9641 12.391 16.8903 11.9272 16.06 10.9978C15.2164 10.0802 14.8013 9.00125 14.8013 7.77441C14.8013 6.54926 15.1945 5.49048 15.9895 4.58632C16.8566 3.59814 17.9541 3.099 19.2817 3.099Z" fill="#E11735"/>
<path fill-rule="evenodd" clip-rule="evenodd" d="M30.0088 4.23846C29.3819 4.23846 28.8173 4.39307 28.298 4.69893C27.7719 5.01657 27.3686 5.44344 27.0577 6.01149C26.7568 6.57113 26.5938 7.15933 26.5938 7.77442C26.5938 8.40297 26.7568 8.99622 27.0577 9.5525C27.3686 10.1205 27.7854 10.5592 28.3064 10.8768C28.8391 11.1827 29.3937 11.3507 29.997 11.3507C30.5987 11.3507 31.1802 11.1827 31.7213 10.8768C32.2558 10.5676 32.6725 10.1407 32.9734 9.61132C33.2624 9.07857 33.4002 8.47691 33.4002 7.80972C33.4002 6.79464 33.0776 5.94258 32.4137 5.26698C31.7684 4.58298 30.9566 4.23846 30.0088 4.23846ZM34.4187 0V12.1675H33.3313V10.6533C32.8658 11.2297 32.3448 11.6549 31.7785 11.9524C31.202 12.2364 30.5651 12.391 29.8811 12.391C28.6677 12.391 27.6223 11.9389 26.7652 11.0314C25.9098 10.1323 25.4712 9.04496 25.4712 7.74082C25.4712 6.48374 25.9098 5.39639 26.7787 4.49727C27.6476 3.59815 28.6878 3.14943 29.9147 3.14943C30.6205 3.14943 31.2575 3.30069 31.8255 3.60991C32.4053 3.91579 32.9045 4.37962 33.3313 4.99641V0H34.4187Z" fill="#E11735"/>
<path fill-rule="evenodd" clip-rule="evenodd" d="M44.2062 6.84505C44.0566 6.23836 43.8331 5.76611 43.5525 5.39637C43.2735 5.03841 42.8987 4.74262 42.4164 4.5275C41.9525 4.29895 41.4618 4.19138 40.9459 4.19138C40.0938 4.19138 39.3711 4.467 38.751 5.02496C38.309 5.42999 37.9679 6.03668 37.7359 6.84505H44.2062ZM44.2062 9.22476L45.1406 9.73735C44.8398 10.3441 44.4734 10.8432 44.0785 11.2247C43.6684 11.6045 43.213 11.8919 42.7105 12.0952C42.2114 12.2834 41.6349 12.391 40.9929 12.391C39.5812 12.391 38.472 11.9137 37.6754 10.9759C36.8805 10.0247 36.4839 8.9626 36.4839 7.77441C36.4839 6.64337 36.8116 5.6451 37.4906 4.77623C38.351 3.65696 39.5006 3.099 40.9375 3.099C42.408 3.099 43.5878 3.67041 44.4734 4.80984C45.1053 5.61989 45.4196 6.62153 45.433 7.83492H37.6284C37.6552 8.85841 37.9679 9.70205 38.5964 10.3558C39.2165 11.0096 39.9913 11.3457 40.8988 11.3457C41.3459 11.3457 41.7626 11.2599 42.1845 11.1054C42.6063 10.9507 42.9542 10.739 43.2483 10.4852C43.5525 10.2281 43.8667 9.80961 44.2062 9.22476Z" fill="#E11735"/>
<path fill-rule="evenodd" clip-rule="evenodd" d="M47.1543 3.32252H48.3122V4.59977C48.6551 4.09727 49.0265 3.7225 49.408 3.4721C49.8046 3.22672 50.1962 3.099 50.613 3.099C50.9356 3.099 51.2718 3.20657 51.628 3.39143L51.0314 4.34096C50.7945 4.23839 50.5911 4.19138 50.4365 4.19138C50.0533 4.19138 49.6836 4.34096 49.3391 4.64683C48.9777 4.9527 48.7156 5.43502 48.5273 6.08037C48.3845 6.57448 48.3122 7.58619 48.3122 9.10041V12.0465H47.1543V3.32252Z" fill="#E11735"/>
<path fill-rule="evenodd" clip-rule="evenodd" d="M53.0059 3.32252H54.068V4.8838C54.4898 4.2855 54.9722 3.83847 55.4831 3.54604C55.999 3.24858 56.567 3.099 57.1737 3.099C57.7972 3.099 58.3451 3.26202 58.8258 3.59309C59.303 3.93258 59.6644 4.37961 59.8896 4.93084C60.1215 5.49552 60.2324 6.3644 60.2324 7.55929V12.0465H59.1703V7.89038C59.1703 6.88035 59.1266 6.2081 59.0493 5.86862C58.9249 5.29218 58.693 4.85859 58.335 4.56616C57.9872 4.2855 57.5317 4.13089 56.9586 4.13089C56.3217 4.13089 55.7419 4.35441 55.2293 4.80144C54.7134 5.25856 54.3772 5.81315 54.2226 6.46691C54.1235 6.90218 54.068 7.70215 54.068 8.8416V12.0465H53.0059L53.0059 3.32252Z" fill="#E11735"/>
<path fill-rule="evenodd" clip-rule="evenodd" d="M66.8371 4.19138C66.222 4.19138 65.654 4.34601 65.1246 4.65523C64.6003 4.97791 64.1952 5.40814 63.886 5.97617C63.5852 6.53582 63.4205 7.13411 63.4205 7.74921C63.4205 8.38112 63.5852 8.97604 63.886 9.534C64.1952 10.1071 64.612 10.5457 65.133 10.8684C65.6674 11.1776 66.222 11.3457 66.8237 11.3457C67.427 11.3457 68.0068 11.1776 68.5497 10.8684C69.0824 10.5592 69.5009 10.1323 69.8017 9.5945C70.0891 9.06175 70.2269 8.45506 70.2269 7.78787C70.2269 6.76438 69.9042 5.90727 69.2555 5.22832C68.5967 4.53927 67.7833 4.19138 66.8371 4.19138ZM71.247 3.32589V12.1641H70.158V10.6398C69.6941 11.2247 69.1732 11.6549 68.6051 11.9524C68.0287 12.2364 67.3917 12.391 66.7077 12.391C65.4943 12.391 64.449 11.9389 63.5936 11.023C62.7365 10.1205 62.2979 9.02309 62.2979 7.71391C62.2979 6.45348 62.7365 5.35772 63.6054 4.45356C64.4759 3.54941 65.5162 3.099 66.743 3.099C67.4489 3.099 68.0841 3.25361 68.6522 3.56285C69.2337 3.87208 69.7328 4.33761 70.158 4.9527V3.32589H71.247Z" fill="#E11735"/>
<path fill-rule="evenodd" clip-rule="evenodd" d="M73.1309 4.08382H73.2687C73.3426 4.08382 73.3897 4.08381 73.4115 4.05698C73.4452 4.03686 73.4586 4.00991 73.4586 3.97637C73.4586 3.95454 73.4452 3.9293 73.4368 3.91588C73.4234 3.89405 73.4116 3.88235 73.3897 3.86881C73.3645 3.86881 73.3158 3.86027 73.2603 3.86027H73.1309L73.1309 4.08382ZM73.0116 4.50901V3.76115H73.2604C73.3545 3.76115 73.4116 3.76115 73.4587 3.77457C73.4922 3.79981 73.5309 3.82164 73.5528 3.8603C73.5796 3.89396 73.5881 3.9292 73.5881 3.96286C73.5881 4.02335 73.5662 4.07043 73.5309 4.10572C73.4838 4.14438 73.4367 4.1645 73.3645 4.17791C73.4031 4.19133 73.4116 4.20487 73.4368 4.21316C73.4586 4.25182 73.4923 4.2989 73.5394 4.36778L73.6352 4.50894H73.484L73.4235 4.39296C73.3647 4.29881 73.3293 4.23835 73.2957 4.21314C73.2689 4.2046 73.2353 4.19131 73.2 4.19131H73.1311V4.50894L73.0116 4.50901ZM73.3074 3.53763C73.2133 3.53763 73.1192 3.56287 73.0234 3.61824C72.9292 3.66702 72.8604 3.73922 72.8133 3.83336C72.7528 3.9291 72.731 4.02327 72.731 4.13083C72.731 4.22498 72.7528 4.32074 72.8133 4.41485C72.8604 4.509 72.9293 4.58291 73.0234 4.62997C73.1192 4.69046 73.2133 4.71229 73.3074 4.71229C73.4116 4.71229 73.5057 4.69046 73.5998 4.62997C73.6957 4.5829 73.7645 4.50899 73.8116 4.41485C73.8587 4.3207 73.8922 4.22495 73.8922 4.13083C73.8922 4.02327 73.8587 3.92916 73.8116 3.83336C73.7645 3.73921 73.6822 3.66699 73.5998 3.61824C73.5057 3.56275 73.4116 3.53763 73.3074 3.53763ZM73.3074 3.44177C73.4234 3.44177 73.5393 3.46872 73.6469 3.51568C73.7646 3.57117 73.8452 3.66694 73.9057 3.77449C73.9796 3.88206 73.9999 4.00137 73.9999 4.13078C73.9999 4.25176 73.9797 4.36774 73.9192 4.47529C73.8453 4.58286 73.7646 4.67697 73.6604 4.73748C73.5394 4.79297 73.4369 4.81979 73.3075 4.81979C73.1882 4.81979 73.0705 4.79284 72.963 4.73748C72.8604 4.67699 72.7781 4.58286 72.7059 4.47529C72.6454 4.36773 72.6235 4.25178 72.6235 4.13078C72.6235 4.00137 72.6454 3.88206 72.7059 3.77449C72.7781 3.66693 72.8605 3.57114 72.963 3.51568C73.084 3.4686 73.1999 3.44177 73.3075 3.44177H73.3074Z" fill="#E11735"/>
</svg>

<svg width="74" height="17" fill="none" xmlns="http://www.w3.org/2000/svg">
  <path fill-rule="evenodd" clip-rule="evenodd" d="M68.202 15.833h-1.055c-.246 0-.374.181-.374.526 0 .326.128.507.374.507h4.056c.26 0 .389-.181.389-.507 0-.345-.13-.526-.388-.526h-3.002Z" fill="#28ABE1"/>
  <path fill-rule="evenodd" clip-rule="evenodd" d="M62.014 15.833H60.96c-.24 0-.383.181-.383.526 0 .326.143.507.383.507h4.054c.254 0 .381-.181.381-.507 0-.345-.127-.526-.381-.526h-3Z" fill="#3DB3E3"/>
  <path fill-rule="evenodd" clip-rule="evenodd" d="M56.156 15.833H55.1c-.257 0-.373.181-.373.526 0 .326.116.507.373.507h4.057c.259 0 .388-.181.388-.507 0-.345-.13-.526-.388-.526h-3.001Z" fill="#4AB8E6"/>
  <path fill-rule="evenodd" clip-rule="evenodd" d="M49.968 15.833h-1.049c-.259 0-.388.181-.388.526 0 .326.13.507.388.507h4.044c.258 0 .386-.181.386-.507 0-.345-.128-.526-.386-.526h-2.995Z" fill="#57BDE8"/>
  <path fill-rule="evenodd" clip-rule="evenodd" d="M43.773 15.833h-1.05c-.258 0-.387.181-.387.526 0 .326.13.507.386.507h4.046c.257 0 .386-.181.386-.507 0-.345-.13-.526-.386-.526h-2.995Z" fill="#63C2EB"/>
  <path fill-rule="evenodd" clip-rule="evenodd" d="M37.92 15.833h-1.048c-.259 0-.388.181-.388.526 0 .326.13.507.388.507h4.044c.258 0 .386-.181.386-.507 0-.345-.128-.526-.386-.526H37.92Z" fill="#70C7EB"/>
  <path fill-rule="evenodd" clip-rule="evenodd" d="M31.727 15.833h-1.05c-.258 0-.387.181-.387.526 0 .326.129.507.386.507h4.045c.27 0 .387-.181.387-.507 0-.345-.116-.526-.387-.526h-2.994Z" fill="#7DCCEE"/>
  <path fill-rule="evenodd" clip-rule="evenodd" d="M25.53 15.833h-1.049c-.258 0-.388.181-.388.526 0 .326.13.507.389.507h4.056c.246 0 .375-.181.375-.507 0-.345-.13-.526-.375-.526H25.53Z" fill="#8AD1F0"/>
  <path fill-rule="evenodd" clip-rule="evenodd" d="M19.681 15.833h-1.053c-.258 0-.385.181-.385.526 0 .326.127.507.385.507h4.046c.258 0 .387-.181.387-.507 0-.345-.13-.526-.387-.526h-2.993Z" fill="#97D7F0"/>
  <path fill-rule="evenodd" clip-rule="evenodd" d="M13.475 15.833h-1.042c-.257 0-.387.181-.387.526 0 .326.13.507.387.507h4.047c.257 0 .386-.181.386-.507 0-.345-.13-.526-.386-.526h-3.005Z" fill="#A3DCF3"/>
  <path fill-rule="evenodd" clip-rule="evenodd" d="M7.287 15.833h-1.05c-.257 0-.385.181-.385.526 0 .326.128.507.385.507h4.049c.257 0 .384-.181.384-.507 0-.345-.127-.526-.384-.526H7.287Z" fill="#B0E1F5"/>
  <path fill-rule="evenodd" clip-rule="evenodd" d="M1.429 15.833H.375c-.257 0-.375.181-.375.526 0 .326.118.507.375.507h4.058c.258 0 .387-.181.387-.507 0-.345-.13-.526-.387-.526H1.43Z" fill="#BDE6F5"/>
  <path fill-rule="evenodd" clip-rule="evenodd" d="M0 3.323h1.102v1.514c.379-.565.768-.965 1.17-1.222a3.291 3.291 0 0 1 1.745-.516c.411 0 .803.08 1.181.245.366.167.677.387.906.67.23.271.437.668.608 1.176.367-.681.827-1.2 1.365-1.563a3.222 3.222 0 0 1 1.768-.528c.596 0 1.112.15 1.56.455.447.306.78.731 1.01 1.283.218.54.32 1.363.32 2.443v4.766h-1.112V7.28c0-.929-.069-1.574-.195-1.927a1.73 1.73 0 0 0-.677-.844c-.31-.215-.69-.318-1.125-.318a2.45 2.45 0 0 0-1.457.483c-.437.312-.756.748-.963 1.277-.196.541-.299 1.432-.299 2.68v3.415h-1.1v-4.46c0-1.059-.058-1.773-.184-2.151a1.837 1.837 0 0 0-.677-.904c-.321-.224-.7-.34-1.136-.34-.506 0-.975.15-1.424.47-.435.305-.756.727-.974 1.255-.207.53-.31 1.34-.31 2.431v3.7H0V3.322Zm19.282.894c-.925 0-1.71.344-2.368 1.045-.657.692-.993 1.536-.993 2.534 0 .632.15 1.227.45 1.787.3.55.704.976 1.225 1.272a3.257 3.257 0 0 0 1.686.452c.6 0 1.166-.155 1.674-.452a3.187 3.187 0 0 0 1.223-1.272c.3-.56.452-1.155.452-1.787 0-.998-.336-1.842-.993-2.534-.659-.7-1.444-1.045-2.356-1.045Zm0-1.118c1.316 0 2.411.5 3.28 1.476.797.902 1.188 1.96 1.188 3.2 0 1.226-.418 2.305-1.26 3.223-.832.93-1.904 1.393-3.208 1.393-1.318 0-2.392-.464-3.222-1.393a4.612 4.612 0 0 1-1.259-3.224c0-1.225.393-2.284 1.188-3.188.868-.988 1.965-1.487 3.293-1.487Zm10.727 1.139c-.627 0-1.192.155-1.711.46-.526.319-.93.745-1.24 1.313a3.688 3.688 0 0 0-.464 1.763 3.7 3.7 0 0 0 .464 1.779c.31.567.727 1.006 1.248 1.324.533.306 1.088.474 1.691.474.602 0 1.183-.168 1.724-.474.535-.31.951-.736 1.252-1.266.29-.532.427-1.134.427-1.801 0-1.015-.322-1.867-.986-2.543-.646-.684-1.457-1.029-2.405-1.029ZM34.419 0v12.168H33.33v-1.515a4.95 4.95 0 0 1-1.553 1.3 4.256 4.256 0 0 1-1.897.438c-1.213 0-2.259-.452-3.116-1.36-.855-.899-1.294-1.986-1.294-3.29 0-1.257.439-2.345 1.308-3.244s1.909-1.348 3.136-1.348c.706 0 1.343.152 1.91.46.58.307 1.08.77 1.506 1.387V0h1.088Zm9.787 6.845c-.15-.607-.373-1.079-.654-1.449a2.918 2.918 0 0 0-1.136-.869 3.28 3.28 0 0 0-1.47-.336c-.852 0-1.575.276-2.195.834-.442.405-.783 1.012-1.015 1.82h6.47Zm0 2.38.935.512a5.39 5.39 0 0 1-1.063 1.488c-.41.38-.865.667-1.367.87-.5.188-1.076.296-1.718.296-1.412 0-2.521-.477-3.318-1.415-.794-.951-1.191-2.013-1.191-3.202 0-1.13.328-2.129 1.007-2.998.86-1.119 2.01-1.677 3.447-1.677 1.47 0 2.65.571 3.535 1.71.632.81.947 1.813.96 3.026h-7.805c.027 1.023.34 1.867.968 2.52.62.655 1.395.99 2.303.99.447 0 .864-.085 1.285-.24.422-.154.77-.366 1.064-.62.305-.257.619-.675.958-1.26Zm2.948-5.902h1.158V4.6c.343-.503.715-.877 1.096-1.128.397-.245.788-.373 1.205-.373.323 0 .659.108 1.015.292l-.597.95a1.569 1.569 0 0 0-.594-.15c-.384 0-.753.15-1.098.456-.361.306-.623.788-.812 1.433-.142.494-.215 1.506-.215 3.02v2.947h-1.158V3.322Zm5.852 0h1.062v1.56c.422-.598.904-1.045 1.415-1.337a3.338 3.338 0 0 1 1.69-.447c.624 0 1.172.163 1.653.494.477.34.838.787 1.064 1.338.231.565.342 1.433.342 2.628v4.487H59.17V7.89c0-1.01-.043-1.682-.12-2.021-.125-.577-.357-1.01-.715-1.303-.348-.28-.803-.435-1.376-.435-.637 0-1.217.223-1.73.67a3.149 3.149 0 0 0-1.006 1.666c-.1.435-.155 1.235-.155 2.375v3.204h-1.062V3.323Zm13.831.868a3.33 3.33 0 0 0-1.712.464c-.525.323-.93.753-1.239 1.321a3.73 3.73 0 0 0-.466 1.773c0 .632.165 1.227.466 1.785.31.573.726 1.012 1.247 1.334.534.31 1.089.478 1.69.478.604 0 1.184-.168 1.727-.478.532-.309.95-.736 1.252-1.274.287-.532.425-1.139.425-1.806 0-1.024-.323-1.88-.972-2.56a3.231 3.231 0 0 0-2.418-1.037Zm4.41-.865v8.838h-1.089V10.64a4.852 4.852 0 0 1-1.553 1.312 4.256 4.256 0 0 1-1.897.439c-1.214 0-2.259-.452-3.114-1.368-.858-.902-1.296-2-1.296-3.31 0-1.26.438-2.355 1.307-3.26.87-.904 1.911-1.354 3.138-1.354.706 0 1.341.155 1.91.464.58.31 1.08.775 1.505 1.39V3.326h1.089Zm1.883.758h.139c.074 0 .12 0 .142-.027a.088.088 0 0 0 .048-.08.13.13 0 0 0-.022-.061.127.127 0 0 0-.047-.047c-.025 0-.074-.009-.13-.009h-.13v.224Zm-.118.425v-.748h.248c.094 0 .152 0 .199.014.033.025.072.047.094.085a.159.159 0 0 1 .035.103c0 .06-.022.107-.057.143a.336.336 0 0 1-.166.072c.038.013.047.027.072.035.022.039.055.086.102.155l.096.14h-.151l-.06-.115c-.06-.094-.095-.155-.128-.18-.027-.008-.06-.022-.096-.022h-.069v.318h-.12Zm.295-.971a.56.56 0 0 0-.284.08.473.473 0 0 0-.21.215.528.528 0 0 0-.082.298c0 .094.022.19.082.284a.466.466 0 0 0 .21.215.52.52 0 0 0 .284.082.516.516 0 0 0 .293-.082.46.46 0 0 0 .212-.215.65.65 0 0 0 .08-.284.661.661 0 0 0-.08-.298.543.543 0 0 0-.212-.215.556.556 0 0 0-.293-.08Zm0-.096c.116 0 .232.027.34.074a.592.592 0 0 1 .259.258.602.602 0 0 1 .094.357c0 .12-.02.237-.08.344a.838.838 0 0 1-.26.262.793.793 0 0 1-.352.083.75.75 0 0 1-.345-.083.832.832 0 0 1-.257-.262.687.687 0 0 1-.082-.344.71.71 0 0 1 .082-.357.772.772 0 0 1 .257-.258.963.963 0 0 1 .345-.074Z" fill="#E11735"/>
</svg>
